svg/power_socket_au.svg

<svg xmlns="http://www.w3.org/2000/svg" viewBox="0 0 24 24"><path d="M4.22 2A2.22 2.22 0 0 0 2 4.22v15.56C2 21 3 22 4.22 22h15.56A2.22 2.22 0 0 0 22 19.78V4.22C22 3 21 2 19.78 2zM12 4a8 8 0 0 1 8 8 8 8 0 0 1-8 8 8 8 0 0 1-8-8 8 8 0 0 1 8-8M8.27 7.54l-2 3.46L8 12l2-3.46zm7.46 0-1.73 1L16 12l1.73-1zM11 14v4h2v-4z"/></svg>

<?xml version="1.0" encoding="UTF-8"?><!DOCTYPE svg PUBLIC "-//W3C//DTD SVG 1.1//EN" "http://www.w3.org/Graphics/SVG/1.1/DTD/svg11.dtd"><svg xmlns="http://www.w3.org/2000/svg" xmlns:xlink="http://www.w3.org/1999/xlink" version="1.1" id="mdi-power-socket-au" width="24" height="24" viewBox="0 0 24 24"><path d="M4.22,2A2.22,2.22 0 0,0 2,4.22V19.78C2,21 3,22 4.22,22H19.78A2.22,2.22 0 0,0 22,19.78V4.22C22,3 21,2 19.78,2H4.22M12,4A8,8 0 0,1 20,12A8,8 0 0,1 12,20A8,8 0 0,1 4,12A8,8 0 0,1 12,4M8.27,7.54L6.27,11L8,12L10,8.54L8.27,7.54M15.73,7.54L14,8.54L16,12L17.73,11L15.73,7.54M11,14V18H13V14H11Z" /></svg>
